X: 41
T:Ships Are Sailing
M:4/4
A:Ireland
R:Reel
Z:Boston
K:D
"Em"Beed BcdB|"D"AD (3FED AD (3FED|"Em"~E3 F GFGA|Beef gfed|
Beed BcdB|"D"AD (3FED AD (3FED|"Em"~E3 F GFGA|"D"Beed "Em"e2||
ef|"G"gfga bgeg|"D"fefg afdf|"Em"gfga bgeg|"D"fedf "Em"e2 ef|
"G"gfga bgeg|"D"fefg afdf|"G"g2 bg "D"f2 af|"Em"edef g2||
